!!!COA:	Josquin des Prez
!!!CDT:	~1450-1521/08/27
!!!OTL:	Ave Maria ... virgo serena (&agrave; 6)
!!!OMB:	As in MunBS 41 (anon.) with two added voices.
!!!AGN:	Motet
!!!SCT:	NJE 23.6
!!!SCA:	New Josquin Edition 23.6
!!!voices:	6
**kern	**kern	**kern	**kern	**kern	**kern
*staff6	*staff5	*staff4	*staff3	*staff2	*staff1
*Ivox	*Ivox	*Ivox	*Ivox	*Ivox	*Ivox
*I"Bassus	*I"Tenor2	*I"Tenor1	*I"Contratenor	*I"Discantus2	*I"Discantus1
*I'B	*I'T2	*I'T1	*I'Ct	*I'D2	*I'D1
*clefF4	*clefGv2	*clefGv2	*clefGv2	*clefG2	*clefG2
*k[]	*k[]	*k[]	*k[]	*k[]	*k[]
*M2/1	*M2/1	*M2/1	*M2/1	*M2/1	*M2/1
*met(C|)	*met(C|)	*met(C|)	*met(C|)	*met(C|)	*met(C|)
=1-	=1-	=1-	=1-	=1-	=1-
!!LO:TX:Z=15:X=-30:t=D2 & T2 probably by a later composer (this six-voice version survives anonymously in MunBS 41)
0r	0r	0r	0r	1r	1g
.	.	.	.	1c	[1cc
=2	=2	=2	=2	=2	=2
0r	0r	0r	0r	1.f	1cc]
.	.	.	.	.	1cc
.	.	.	.	2e/	.
=3	=3	=3	=3	=3	=3
0r	1r	0r	1G	1d	1dd
.	1C	.	[1c	2c/	1ee
.	.	.	.	2g/	.
=4	=4	=4	=4	=4	=4
0r	2.F/	0r	1c]	2.a/	0cc
.	4E/	.	.	4g/	.
.	2F/	.	1c	4a/	.
.	.	.	.	4b\	.
.	2A/	.	.	[2cc\	.
=5	=5	=5	=5	=5	=5
0r	1G	1G	1d	2cc\]	0r
.	.	.	.	2b\	.
.	2C/	[1c	1e	1cc	.
.	2C/	.	.	.	.
=6	=6	=6	=6	=6	=6
0r	2.F/	1c]	0c	2r	0r
.	.	.	.	2.cc\	.
.	4G/	.	.	.	.
.	4A/	1c	.	.	.
.	4B\	.	.	4b\	.
.	[2c\	.	.	2a/	.
=7	=7	=7	=7	=7	=7
1GG	2c\]	1d	0r	1.g	0r
.	2B\	.	.	.	.
[1C	1c	1e	.	.	.
.	.	.	.	2g/	.
=8	=8	=8	=8	=8	=8
1C]	2.c\	0c	0r	2.e/	1.cc
.	4B\	.	.	4d/	.
1C	2A/	.	.	4e/	.
.	.	.	.	4f/	.
.	2G/	.	.	[2g/	2b\
=9	=9	=9	=9	=9	=9
1D	2.d\	0r	0r	2g/]	1a
.	.	.	.	2f/	.
.	4c\	.	.	.	.
1E	2B\	.	.	2g/	1g
.	[2c\	.	.	[2e/	.
=10	=10	=10	=10	=10	=10
0C	2c\]	0r	1.c	4e/]	2a/
.	.	.	.	4d/	.
.	4B\	.	.	4e/	2g/
.	4A/	.	.	4f/	.
.	1G	.	.	4g/	[1cc
.	.	.	.	4a/	.
.	.	.	2B\	[2g/	.
=11	=11	=11	=11	=11	=11
0r	1c	0r	1A	2g/]	2cc\]
.	.	.	.	2f/	4b\
.	.	.	.	.	4a/
.	1d	.	1G	1g	1b
=12	=12	=12	=12	=12	=12
0r	2.c\	1.c	2.A/	1r	0cc
.	4B\	.	4G/	.	.
.	2A/	.	[1c	1e	.
.	2G/	2B\	.	.	.
=13	=13	=13	=13	=13	=13
0r	1F	1A	2c\]	2f/	0r
.	.	.	4B\	2f/	.
.	.	.	4A/	.	.
.	1E	1G	1B	1g	.
=14	=14	=14	=14	=14	=14
1.C	2r	2A/	0c	1e	0r
.	2.E/	2G/	.	.	.
.	.	[1c	.	2.e/	.
.	4F/	.	.	.	.
2BB/	[2G/	.	.	.	.
.	.	.	.	4d/	.
=15	=15	=15	=15	=15	=15
1AA	2G/]	2c\]	0r	2e/	0r
.	2F/	4B\	.	2f/	.
.	.	4A/	.	.	.
1GG	1G	1B	.	1d	.
=16	=16	=16	=16	=16	=16
1.AA	1E	0c	0r	2c/	1r
.	.	.	.	1cc	.
.	1F	.	.	.	[1cc
2BB/	.	.	.	4b\	.
.	.	.	.	4a/	.
=17	=17	=17	=17	=17	=17
0C	2E/	0r	0r	2g/	2cc\]
.	2.c\	.	.	2a/	2cc\
.	.	.	.	2g/	1cc
.	4B\	.	.	.	.
.	2A/	.	.	[2cc\	.
=18	=18	=18	=18	=18	=18
0r	1G	0r	1r	2cc\]	1dd
.	.	.	.	2b\	.
.	1C	.	[1c	2.cc\	1ee
.	.	.	.	4b\	.
=19	=19	=19	=19	=19	=19
0r	2.F/	0r	2c\]	4a/	2.cc\
.	.	.	.	4g/	.
.	.	.	2c\	1f	.
.	4G/	.	.	.	4b\
.	4A/	.	1c	.	2a/
.	4B\	.	.	.	.
.	[2c\	.	.	2e/	2g/
=20	=20	=20	=20	=20	=20
0r	2c\]	1r	1d	1d	1f
.	2B\	.	.	.	.
.	2.c\	[1c	1e	1c	2e/
.	.	.	.	.	[2cc\
.	4B\	.	.	.	.
=21	=21	=21	=21	=21	=21
0r	4A/	2c\]	0c	0r	4cc\]
.	4G/	.	.	.	4b\
.	1F	2c\	.	.	1a
.	.	1c	.	.	.
.	2E/	.	.	.	2g/
=22	=22	=22	=22	=22	=22
1r	1D	1d	0r	1r	1f
[1C	1C	1e	.	1g	1e
=23	=23	=23	=23	=23	=23
2C/]	0r	2c\	0c	2g/	0r
2C/	.	2.e\	.	2g/	.
1C	.	.	.	1e	.
.	.	4d\	.	.	.
.	.	[2g\	.	.	.
=24	=24	=24	=24	=24	=24
1D	0r	2g\]	1A	1d	0r
.	.	2f#i\	.	.	.
1E	.	1g	1G	2r	.
.	.	.	.	[2g/	.
=25	=25	=25	=25	=25	=25
0C	1c	0r	2.A/	4g/]	0cc
.	.	.	.	4f/	.
.	.	.	.	4e/	.
.	.	.	4B\	4d/	.
.	2A/	.	[1c	4e/	.
.	.	.	.	4f/	.
.	2G/	.	.	[2g/	.
=26	=26	=26	=26	=26	=26
0r	2.A/	0c	2c\]	2g/]	1a
.	.	.	2d\	2f#i/	.
.	4B\	.	.	.	.
.	[1c	.	[1e	1g	1g
=27	=27	=27	=27	=27	=27
0r	2c\]	1A	2e\]	0r	1cc
.	4B\	.	4d\	.	.
.	4A/	.	4c\	.	.
.	1B	1G	2.g\	.	1dd
.	.	.	4f\	.	.
=28	=28	=28	=28	=28	=28
0C	1c	2.g\	4e\	1r	1ee
.	.	.	4d\	.	.
.	.	.	1.c	.	.
.	.	4f\	.	.	.
.	1G	4e\	.	1g	2r
.	.	4d\	.	.	.
.	.	[2c\	.	.	[2ee\
=29	=29	=29	=29	=29	=29
1AA	1A	4c\]	2e\	1cc	4ee\]
.	.	4B\	.	.	4dd\
.	.	2c\	2f\	.	1cc
1GG	2r	1d	1g	1r	.
.	2G/	.	.	.	2b\
=30	=30	=30	=30	=30	=30
1.AA	2c\	[0c	0e	1.cc	0cc
.	2A/	.	.	.	.
.	2c\	.	.	.	.
2BB/	2d\	.	.	4b\	.
.	.	.	.	4a/	.
=31	=31	=31	=31	=31	=31
0C	1.e	0c]	1r	1.g	1r
.	.	.	1c	.	1cc
.	2e\	.	.	2g/	.
=32	=32	=32	=32	=32	=32
0r	1A	0r	1e	1.a	1cc
.	1d	.	1f	.	1dd
.	.	.	.	2b\	.
=33	=33	=33	=33	=33	=33
0r	2.c\	0r	1g	1cc	1ee
.	4d\	.	.	.	.
.	2e\	.	2g\	1r	2ee\
.	2d\	.	[2a\	.	[2ff\
=34	=34	=34	=34	=34	=34
0r	1c	0r	2a\]	1r	4ff\]
.	.	.	.	.	4ee\
.	.	.	2g\	.	1ee
.	1d	.	1f	1a	.
.	.	.	.	.	2dd\
=35	=35	=35	=35	=35	=35
1r	1A	1r	0e	1a	0ee
1C	1r	1c	.	[1cc	.
=36	=36	=36	=36	=36	=36
1E	0r	1c	1r	2cc\]	0r
.	.	.	.	2b\	.
1F	.	1d	1A	1a	.
=37	=37	=37	=37	=37	=37
1G	0r	1e	1.B	2.g/	0r
.	.	.	.	4a/	.
2G\	.	2e\	.	2b\	.
[2A\	.	[2f\	[2c\	[2a/	.
=38	=38	=38	=38	=38	=38
2A\]	0r	2f\]	4c\]	2a/]	0r
.	.	.	4B\	.	.
2G\	.	1e	1B	2b\	.
1F	.	.	.	2cc\	.
.	.	2d\	2A/	2dd\	.
=39	=39	=39	=39	=39	=39
0E	0r	0e	0B	0g	0r
=40	=40	=40	=40	=40	=40
1r	1r	1r	1r	1r	1r
1C	1G	1g	1c	1cc	1ee
=41	=41	=41	=41	=41	=41
1C	2G/	1g	1c	1.cc	1ee
.	2G/	.	.	.	.
1C	1c	1g	1c	.	1ee
.	.	.	.	2cc\	.
=42	=42	=42	=42	=42	=42
2.F\	2.A/	1.a	1.c	1cc	1.ff
4E\	4G/	.	.	.	.
2F\	4A/	.	.	1cc	.
.	4B\	.	.	.	.
2C/	2c\	2g\	4d\	.	2ee\
.	.	.	4e\	.	.
=43	=43	=43	=43	=43	=43
2D\	2A/	1f	2f\	1r	1dd
2BB/	2B\	.	2d\	.	.
1C	1G	1e	[1g	1cc	1cc
=44	=44	=44	=44	=44	=44
1.G	2r	1d	0g]	1.dd	1b
.	2G/	.	.	.	.
.	2G/	2B\	.	.	1g
2E\	2c\	[2c\	.	2ee\	.
=45	=45	=45	=45	=45	=45
1F	1A	2c\]	2f\	2cc\	1a
.	.	1d	2a\	2a/	.
1G	1r	.	1g	2dd\	1b
.	.	[2e\	.	2g/	.
=46	=46	=46	=46	=46	=46
1.A	2r	2e\]	1c	1cc	1cc
.	2A/	1c	.	.	.
.	2A/	.	1a	1r	1a
2F\	2d\	[2d\	.	.	.
=47	=47	=47	=47	=47	=47
1G	2B\	2d\]	2g\	0r	1b
.	2G/	1e	2b\	.	.
1A	1c	.	1a	.	1cc
.	.	[2f\	.	.	.
=48	=48	=48	=48	=48	=48
1.B-i	0r	2f\]	2.d\	0r	1dd
.	.	1d	.	.	.
.	.	.	4e\	.	.
.	.	.	2f\	.	1b
2G\	.	[2e\	2g\	.	.
=49	=49	=49	=49	=49	=49
1A	0r	2e\]	1c	0r	1cc
.	.	1f	.	.	.
1B	.	.	2r	.	1dd
.	.	[2g\	2d\	.	.
=50	=50	=50	=50	=50	=50
2.c\	0r	2g\]	2c\	1cc	2.ee\
.	.	2.a\	2.A/	.	.
4B\	.	.	.	.	4dd\
2c\	.	.	.	1cc	2ee\
.	.	4g\	4B\	.	.
2A\	.	2a\	2c\	.	[2ff\
=51	=51	=51	=51	=51	=51
2.B\	2r	2f\	2d\	0r	4ff\]
.	.	.	.	.	4ee\
.	2d\	2.g\	2.G/	.	4dd\
4A\	.	.	.	.	4cc\
2B\	2d\	.	.	.	2dd\
.	.	4f\	4A/	.	.
2G\	2B\	2g\	2B\	.	[2ee\
=52	=52	=52	=52	=52	=52
2A\	1A	2e\	2c\	1c	4ee\]
.	.	.	.	.	4dd\
2F\	.	2f\	2A/	.	1cc
1G	1r	1d	1G	2.g/	.
.	.	.	.	.	2b\
.	.	.	.	4f/	.
=53	=53	=53	=53	=53	=53
[0C	0r	[0c	2G/	4e/	0cc
.	.	.	.	4d/	.
.	.	.	2.g\	1e	.
.	.	.	4f\	.	.
.	.	.	4e\	2c/	.
.	.	.	4d\	.	.
=54	=54	=54	=54	=54	=54
0C]	1G	0c]	1e	1g	1r
.	2c\	.	1r	1e	1g
.	2c\	.	.	.	.
=55	=55	=55	=55	=55	=55
0r	1A	0r	1c	2r	1.cc
.	.	.	.	1a	.
.	1r	.	[1f	.	.
.	.	.	.	2d/	2b\
=56	=56	=56	=56	=56	=56
0r	2r	0r	2f\]	1a	1cc
.	2A/	.	2e\	.	.
.	2d\	.	1f	1a	1dd
.	2d\	.	.	.	.
=57	=57	=57	=57	=57	=57
0r	1G	0r	1g	1r	1.b
.	1r	.	[1e	1g	.
.	.	.	.	.	4a/
.	.	.	.	.	4g/
=58	=58	=58	=58	=58	=58
0r	2.C/	0r	2e\]	2.e/	1g
.	.	.	4d\	.	.
.	4D/	.	4c\	4f/	.
.	2E/	.	1c	2g/	2g/
.	2F/	.	.	4f/	[2a/
.	.	.	.	4e/	.
=59	=59	=59	=59	=59	=59
0r	2G/	1r	2B\	4.d/	4a/]
.	.	.	.	.	4g/
.	.	.	.	8e/	.
.	2A/	.	2c\	2f/	1cc
.	1G	1G	1d	1g	.
.	.	.	.	.	2b\
=60	=60	=60	=60	=60	=60
1C	1G	1.c	1c	1e	0cc
[1F	1r	.	1r	1r	.
.	.	2B\	.	.	.
=61	=61	=61	=61	=61	=61
2F\]	2r	1c	0r	2.cc\	0r
2E\	2C/	.	.	.	.
.	.	.	.	4b\	.
1F	2F/	1d	.	4a/	.
.	.	.	.	4g/	.
.	2D/	.	.	[2a/	.
=62	=62	=62	=62	=62	=62
1G	4E/	1.B	0r	2a/]	0r
.	4D/	.	.	.	.
.	4E/	.	.	1g	.
.	4F/	.	.	.	.
[1E	2.G/	.	.	.	.
.	.	4A/	.	2g/	.
.	4A/	4G/	.	.	.
=63	=63	=63	=63	=63	=63
2E\]	2B\	1G	0r	2g/	0r
4D\	2B\	.	.	2f/	.
4C/	.	.	.	.	.
1C	1c	2G/	.	1e	.
.	.	[2A/	.	.	.
=64	=64	=64	=64	=64	=64
2BB/	2d\	4A/]	0r	0r	1r
.	.	4G/	.	.	.
2C/	2e\	1c	.	.	.
1D	1f	.	.	.	1dd
.	.	2B\	.	.	.
=65	=65	=65	=65	=65	=65
0C	1e	0c	0r	2r	1ee
.	.	.	.	1g	.
.	1r	.	.	.	1cc
.	.	.	.	2e/	.
=66	=66	=66	=66	=66	=66
0r	2r	0r	1r	1f	1dd
.	2d\	.	.	.	.
.	1e	.	1g	2g/	1b
.	.	.	.	[2e/	.
=67	=67	=67	=67	=67	=67
0r	1A	1r	1a	2e/]	2.cc\
.	.	.	.	2.f/	.
.	.	.	.	.	4b\
.	1d	1d	1f	.	1a
.	.	.	.	4g/	.
.	.	.	.	4a/	.
.	.	.	.	4b\	.
=68	=68	=68	=68	=68	=68
0r	0r	1e	1g	2cc\	0g
.	.	.	.	2b\	.
.	.	1c	1e	1cc	.
=69	=69	=69	=69	=69	=69
1r	0r	1d	2.f\	1a	0r
.	.	.	4e\	.	.
1G	.	1B	1d	1g	.
=70	=70	=70	=70	=70	=70
1A	0r	2.c\	2.c\	1e	0r
.	.	4B\	4B\	.	.
1F	.	1A	2c\	1f	.
.	.	.	[2d\	.	.
=71	=71	=71	=71	=71	=71
1G	2r	1G	4d\]	0r	1r
.	.	.	4B\	.	.
.	2d\	.	1B	.	.
1E	2e\	1g	.	.	1g
.	2e\	.	[2c\	.	.
=72	=72	=72	=72	=72	=72
2.F\	2c\	1a	4c\]	0r	1cc
.	.	.	4B\	.	.
.	2A/	.	1A	.	.
4E\	.	.	.	.	.
1D	2d\	1f	.	.	1dd
.	2d\	.	4G/	.	.
.	.	.	4F/	.	.
=73	=73	=73	=73	=73	=73
1C	1G	1g	1c	2r	1ee
.	.	.	.	2cc\	.
1G	1r	2r	1B	2dd\	2dd\
.	.	2g\	.	2b\	[2ee\
=74	=74	=74	=74	=74	=74
1A	1r	2e\	1c	1.a	4ee\]
.	.	.	.	.	4cc\
.	.	2.f\	.	.	1cc
1F	2r	.	1A	.	.
.	.	4e\	.	.	.
.	2A/	4d\	.	2a/	[2dd\
.	.	4c\	.	.	.
=75	=75	=75	=75	=75	=75
1G	1d	2B\	0G	1.b	4dd\]
.	.	.	.	.	4b\
.	.	2G/	.	.	1b
1E	1e	1g	.	.	.
.	.	.	.	4a/	2ee\
.	.	.	.	4g/	.
=76	=76	=76	=76	=76	=76
1F	2A/	2f\	0r	1a	4dd\
.	.	.	.	.	4cc\
.	2A/	2e\	.	.	1cc
1G	1B	1d	.	1g	.
.	.	.	.	.	2b\
=77	=77	=77	=77	=77	=77
0C	1G	0c	0r	0e	1cc
.	1G	.	.	.	1r
=78	=78	=78	=78	=78	=78
0r	2r	0r	1c	1g	1cc
.	2C/	.	.	.	.
.	2F/	.	2c\	2a/	2cc\
.	2A/	.	2c\	2a/	2cc\
=79	=79	=79	=79	=79	=79
0r	1.G	0r	1.g	2.d/	1dd
.	.	.	.	4c/	.
.	.	.	.	4d/	2b\
.	.	.	.	4e/	.
.	2F/	.	[2a\	2f/	[2cc\
=80	=80	=80	=80	=80	=80
0r	1G	0r	4a\]	2e/	2cc\]
.	.	.	4g\	.	.
.	.	.	1g	1d	2b\
.	1D	.	.	.	1a
.	.	.	2f#i\	2d/	.
=81	=81	=81	=81	=81	=81
1C	0G	1c	0g	1e	0g
2C/	.	2c\	.	2r	.
2C/	.	2c\	.	2g/	.
=82	=82	=82	=82	=82	=82
1G	0r	1d	0r	2g/	0r
.	.	.	.	2g/	.
2G\	.	2B\	.	2e/	.
[2A\	.	[2c\	.	2f/	.
=83	=83	=83	=83	=83	=83
4A\]	1r	2c\]	0r	1g	0r
4G\	.	.	.	.	.
1G	.	2B\	.	.	.
.	1D	1A	.	1a	.
2F#i\	.	.	.	.	.
=84	=84	=84	=84	=84	=84
0G	2.G/	0G	2.g\	1d	1b
.	4A/	.	4f\	.	.
.	2B\	.	2e\	2r	2b\
.	2G/	.	2d\	2g/	2b\
=85	=85	=85	=85	=85	=85
0r	2A/	0r	1c	2e/	1cc
.	2A/	.	.	2e/	.
.	2.D/	.	2d\	2.f/	2b\
.	.	.	[2f\	.	[2a/
.	4E/	.	.	4g/	.
=86	=86	=86	=86	=86	=86
0r	2F/	0r	4f\]	4a/	2a/]
.	.	.	4e\	4b\	.
.	2C/	.	1e	2.cc\	2g/
.	1D	.	.	.	1f
.	.	.	.	4a/	.
.	.	.	2d\	2b\	.
=87	=87	=87	=87	=87	=87
0r	2A/	0r	1.e	2cc\	1e
.	4G/	.	.	4b\	.
.	4F/	.	.	4a/	.
.	2E/	.	.	2g/	2r
.	2A/	.	4d\	[2cc\	[2e/
.	.	.	4c\	.	.
=88	=88	=88	=88	=88	=88
1r	1G	1r	1g	2cc\]	2e/]
.	.	.	.	2b\	4d/
.	.	.	.	.	4c/
1C	2r	1e	1c	1cc	1g
.	[2c\	.	.	.	.
=89	=89	=89	=89	=89	=89
1.G	2c\]	1e	0r	2r	0r
.	1B	.	.	1g	.
.	.	1d	.	.	.
[2F\	[2A/	.	.	[2a/	.
=90	=90	=90	=90	=90	=90
2F\]	2A/]	1f	0r	2a/]	0r
4E\	1c	.	.	4g/	.
4D\	.	.	.	4f/	.
2C/	.	1e	.	1g	.
[2G\	4B\	.	.	.	.
.	4A/	.	.	.	.
=91	=91	=91	=91	=91	=91
2G\]	2B\	2.d\	0r	2g/	0r
1F	1A	.	.	2a/	.
.	.	4c\	.	.	.
.	.	2d\	.	2f/	.
4E\	4G/	[2e\	.	[2g/	.
4D\	4F/	.	.	.	.
=92	=92	=92	=92	=92	=92
2C/	1G	4e\]	0r	4g/]	0r
.	.	4d\	.	4f/	.
2E\	.	1c	.	4g/	.
.	.	.	.	4e/	.
1D	2A/	.	.	1f	.
.	2F/	2B\	.	.	.
=93	=93	=93	=93	=93	=93
0C	0G	0c	0r	0e	0r
=94	=94	=94	=94	=94	=94
*M3/1	*M3/1	*M3/1	*M3/1	*M3/1	*M3/1
*met(3)	*met(3)	*met(3)	*met(3)	*met(3)	*met(3)
1c	1C	1r	1e	1cc	1g
1c	1C	1c	1e	1cc	1g
1c	1C	1c	1e	1cc	1g
=95	=95	=95	=95	=95	=95
0F	1F	1c	1.f	1a	0a
.	0D	0d	.	2dd\	.
.	.	.	2e\	2cc\	.
1F	.	.	2d\	2b\	1a
.	.	.	2c\	2a/	.
=96	=96	=96	=96	=96	=96
0G	1G	1d	0B	1g	0b
.	1.E	0e	.	2g/	.
.	.	.	.	2f/	.
1G	.	.	1B	2e/	1b
.	2F/	.	.	2d/	.
=97	=97	=97	=97	=97	=97
0C	0G	1e	0c	0e	0g
.	.	0c	.	.	.
1r	1r	.	1r	1r	1r
=98	=98	=98	=98	=98	=98
1c	1C	1r	1e	1cc	1g
1c	1C	1c	1e	1cc	1g
1c	1C	1c	1e	1cc	1g
=99	=99	=99	=99	=99	=99
0F	1F	1c	1.f	1a	0a
.	0D	0d	.	2dd\	.
.	.	.	2e\	2cc\	.
1F	.	.	2d\	2b\	1a
.	.	.	2c\	2a/	.
=100	=100	=100	=100	=100	=100
0G	1G	1d	0B	1g	0b
.	1.E	0e	.	2g/	.
.	.	.	.	2f/	.
1G	.	.	1B	2e/	1b
.	2F/	.	.	2d/	.
=101	=101	=101	=101	=101	=101
0C	0G	1e	0c	1e	0g
.	.	0c	.	1r	.
1c	1r	.	1g	1e	1g
=102	=102	=102	=102	=102	=102
0A	1F	1c	0a	1c	0cc
.	1F	0f	.	2cc\	.
.	.	.	.	2b\	.
1A	1A	.	1a	2a/	1cc
.	.	.	.	2g/	.
=103	=103	=103	=103	=103	=103
0d	1D	1f	0f	1f	0a
.	1D	0d	.	2f/	.
.	.	.	.	2e/	.
1d	[1d	.	1f	2d/	1a
.	.	.	.	2c/	.
=104	=104	=104	=104	=104	=104
0G	2d\]	1d	0g	1d	1.dd
.	2c\	.	.	.	.
.	2B\	1.g	.	1d	.
.	2A/	.	.	.	2cc\
1G	1G	.	1d	1g	2b\
.	.	2f\	.	.	2a/
=105	=105	=105	=105	=105	=105
0c	1.C	2e\	0e	1.g	0g
.	.	2d\	.	.	.
.	.	0c	.	.	.
.	2D/	.	.	2f/	.
1c	1E	.	1g	2e/	1g
.	.	.	.	2d/	.
=106	=106	=106	=106	=106	=106
0A	0F	1c	1.a	0c	0cc
.	.	0f	.	.	.
.	.	.	2g\	.	.
1A	1r	.	2f\	1cc	1cc
.	.	.	2e\	.	.
=107	=107	=107	=107	=107	=107
1B	1r	1f	1d	0b	1dd
1G	1G	1g	1B	.	1.ee
1A	[1c	1e	1c	1a	.
.	.	.	.	.	2dd\
=108	=108	=108	=108	=108	=108
1F	2c\]	1f	1A	1cc	0cc
.	2A/	.	.	.	.
0G	1B	0d	0G	0g	.
.	1G	.	.	.	1b
=109	=109	=109	=109	=109	=109
*M2/1	*M2/1	*M2/1	*M2/1	*M2/1	*M2/1
*met(C|)	*met(C|)	*met(C|)	*met(C|)	*met(C|)	*met(C|)
[0C	1.G	[0c	1g	1.e	0cc
.	.	.	[1e	.	.
.	2A/	.	.	2c/	.
=110	=110	=110	=110	=110	=110
0C]	0G	0c]	2e\]	1g	0r
.	.	.	4d\	.	.
.	.	.	4c\	.	.
.	.	.	1c	2r	.
.	.	.	.	[2g/	.
=111	=111	=111	=111	=111	=111
0r	1r	0r	1r	4g/]	0dd
.	.	.	.	4a/	.
.	.	.	.	4b\	.
.	.	.	.	4cc\	.
.	2r	.	1g	2dd\	.
.	[2G/	.	.	2b\	.
=112	=112	=112	=112	=112	=112
0r	4G/]	0r	1g	2.dd\	1dd
.	4A/	.	.	.	.
.	4B\	.	.	.	.
.	4c\	.	.	8cc\L	.
.	.	.	.	8b\J	.
.	2d\	.	1f	2a/	1dd
.	2B\	.	.	2dd\	.
=113	=113	=113	=113	=113	=113
0r	2c\	0r	2e\	2.g/	1.ee
.	4B\	.	4d\	.	.
.	4A/	.	4c\	4a/	.
.	2G/	.	1g	2.b\	.
.	[2G/	.	.	.	4dd\
.	.	.	.	4a/	4cc\
=114	=114	=114	=114	=114	=114
1r	4G/]	0d	0G	4b\	1b
.	4A/	.	.	4cc\	.
.	4B\	.	.	2dd\	.
.	4c\	.	.	.	.
1G	2d\	.	.	2g/	2b\
.	2G/	.	.	[2b\	[2dd\
=115	=115	=115	=115	=115	=115
1G	1d	1d	1r	2b\]	2dd\]
.	.	.	.	4a/	4cc\
.	.	.	.	4g/	4b\
1F	2r	1d	1A	1a	2a/
.	2D/	.	.	.	2a/
=116	=116	=116	=116	=116	=116
1E	2G/	1.e	2B\	0r	0g
.	2G/	.	1c	.	.
1C	1G	.	.	.	.
.	.	4d\	2c\	.	.
.	.	4c\	.	.	.
=117	=117	=117	=117	=117	=117
1.G	1G	1B	4d\	2r	0r
.	.	.	4c\	.	.
.	.	.	4B\	2g/	.
.	.	.	4A/	.	.
.	2r	2B\	1G	2g/	.
4F\	2G/	[2d\	.	2g/	.
4E\	.	.	.	.	.
=118	=118	=118	=118	=118	=118
2F\	2A/	2d\]	0r	2f/	0r
1G	2B\	4c\	.	2d/	.
.	.	4B\	.	.	.
.	2c\	1A	.	2e/	.
2F#i\	2c\	.	.	2f/	.
=119	=119	=119	=119	=119	=119
0G	1B	0G	1r	0d	0dd
.	2r	.	1g	.	.
.	[2G/	.	.	.	.
=120	=120	=120	=120	=120	=120
0r	4G/]	0r	1g	2r	1dd
.	4A/	.	.	.	.
.	4B\	.	.	1dd	.
.	4c\	.	.	.	.
.	1d	.	1f	.	1dd
.	.	.	.	2a/	.
=121	=121	=121	=121	=121	=121
0r	2A/	0r	2e\	2cc\	1.ee
.	2c\	.	4d\	2.g/	.
.	.	.	4c\	.	.
.	2.G/	.	1g	.	.
.	.	.	.	4a/	.
.	.	.	.	4b\	4dd\
.	4A/	.	.	4cc\	4cc\
=122	=122	=122	=122	=122	=122
1r	4B\	0d	0G	2dd\	1b
.	4A/	.	.	.	.
.	4B\	.	.	2.g/	.
.	4c\	.	.	.	.
1G	1d	.	.	.	2b\
.	.	.	.	4a/	.
.	.	.	.	[2b\	[2dd\
=123	=123	=123	=123	=123	=123
1G	1r	1d	1r	2b\]	2dd\]
.	.	.	.	4a/	4cc\
.	.	.	.	4g/	4b\
1F	1D	1d	1A	1a	1a
=124	=124	=124	=124	=124	=124
1E	1.G	1.e	2B\	0r	0g
.	.	.	1.c	.	.
1C	.	.	.	.	.
.	2G/	4d\	.	.	.
.	.	4c\	.	.	.
=125	=125	=125	=125	=125	=125
1.G	1G	1B	4d\	0g	0r
.	.	.	4c\	.	.
.	.	.	4B\	.	.
.	.	.	4A/	.	.
.	1r	2B\	1G	.	.
4F\	.	[2d\	.	.	.
4E\	.	.	.	.	.
=126	=126	=126	=126	=126	=126
2F\	1D	2d\]	0r	0a	0r
1G	.	4c\	.	.	.
.	.	4B\	.	.	.
.	1D	1A	.	.	.
2F#i\	.	.	.	.	.
=127	=127	=127	=127	=127	=127
0G	0r	0G	2r	2.b\	1r
.	.	.	1g	.	.
.	.	.	.	4a/	.
.	.	.	.	4b\	1g
.	.	.	.	4cc\	.
.	.	.	4f\	2dd\	.
.	.	.	4e\	.	.
=128	=128	=128	=128	=128	=128
0r	2r	0r	2f\	2cc\	1a
.	2D/	.	1d	2.dd\	.
.	1G	.	.	.	1b
.	.	.	.	4cc\	.
.	.	.	[2e\	2b\	.
=129	=129	=129	=129	=129	=129
1r	1A	1r	2e\]	2a/	1.cc
.	.	.	4d\	2a/	.
.	.	.	4c\	.	.
1G	2B\	1G	1d	1g	.
.	2G/	.	.	.	2b\
=130	=130	=130	=130	=130	=130
2.F\	1c	1A	2r	0r	1cc
.	.	.	1f	.	.
4E\	.	.	.	.	.
1D	1F	1B	.	.	1dd
.	.	.	4e\	.	.
.	.	.	4d\	.	.
=131	=131	=131	=131	=131	=131
2.C/	1G	1.c	2.g\	1r	0ee
4D\	.	.	4f\	.	.
4E\	1r	.	2g\	1g	.
4F\	.	.	.	.	.
2G\	.	2B\	[2e\	.	.
=132	=132	=132	=132	=132	=132
2A\	0r	1c	4e\]	1e	0r
.	.	.	4d\	.	.
2E\	.	.	4c\	.	.
.	.	.	4B\	.	.
1F	.	1d	1A	1a	.
=133	=133	=133	=133	=133	=133
0E	0r	0e	2B\	2.g/	1r
.	.	.	2G/	.	.
.	.	.	.	4a/	.
.	.	.	1g	2b\	1ee
.	.	.	.	[2cc\	.
=134	=134	=134	=134	=134	=134
0r	0r	0r	2r	2cc\]	1ee
.	.	.	2.g\	1b	.
.	.	.	.	.	1dd
.	.	.	4f\	.	.
.	.	.	2d\	2a/	.
=135	=135	=135	=135	=135	=135
0r	0r	0r	2e\	2g/	1.cc
.	.	.	2.f\	2.a/	.
.	.	.	4e\	4g/	.
.	.	.	4d\	4f/	[2dd\
.	.	.	4c\	4e/	.
=136	=136	=136	=136	=136	=136
0r	1G	1r	1B	2d/	1dd]
.	.	.	.	1g	.
.	2c\	1e	1c	.	[1cc
.	2A/	.	.	2a/	.
=137	=137	=137	=137	=137	=137
1r	2.B\	1e	1G	1g	2cc\]
.	.	.	.	.	1.b
.	4A/	.	.	.	.
1G	4B\	1d	2r	1g	.
.	4c\	.	.	.	.
.	2d\	.	[2g\	.	.
=138	=138	=138	=138	=138	=138
2E\	1e	1.c	4g\]	1r	1cc
.	.	.	4f\	.	.
2.A\	.	.	4e\	.	.
.	.	.	4d\	.	.
.	1A	.	2e\	2r	1r
4G\	.	.	.	.	.
4F\	.	[2d\	[2A/	[2a/	.
4E\	.	.	.	.	.
=139	=139	=139	=139	=139	=139
2F\	0r	1d]	2A/]	2a/]	0r
2G\	.	.	2B\	1g	.
2E\	.	[1c	2G/	.	.
[2F\	.	.	[2A/	2f/	.
=140	=140	=140	=140	=140	=140
4F\]	0r	2c\]	2A/]	2c/	0r
4E\	.	.	.	.	.
4D\	.	1.B	1G	4d/	.
4C/	.	.	.	4e/	.
1D	.	.	.	2f/	.
.	.	.	2F/	2d/	.
=141	=141	=141	=141	=141	=141
0C	0r	0c	0G	0e	0r
=142	=142	=142	=142	=142	=142
0r	0r	0r	0r	0r	0r
=143	=143	=143	=143	=143	=143
0C	0G	0c	0g	0g	0cc
=144	=144	=144	=144	=144	=144
1G	1G	1B	1g	1b	1dd
1G	1G	1B	1g	1b	1ee
=145	=145	=145	=145	=145	=145
1.F	2.c\	1.A	0a	0cc	0ff
.	4B\	.	.	.	.
.	2A/	.	.	.	.
4E\	4G/	2B\	.	.	.
4D\	4F/	.	.	.	.
=146	=146	=146	=146	=146	=146
0C	0G	0c	0g	0cc	0ee
=147	=147	=147	=147	=147	=147
1r	1r	1r	1r	1r	1r
1C	1G	1c	1g	1cc	1ee
=148	=148	=148	=148	=148	=148
1c	1C	1c	1g	1g	1ee
1G	1G	1B	1g	1b	1dd
=149	=149	=149	=149	=149	=149
0A	2.c\	0c	1e	0a	0cc
.	4B\	.	.	.	.
.	4A/	.	1f	.	.
.	4G/	.	.	.	.
.	2A/	.	.	.	.
=150	=150	=150	=150	=150	=150
00G	00B	00d	00g	00dd	00b
=151	=151	=151	=151	=151	=151
0C	0G	0c	0g	0ee	0cc
=152	=152	=152	=152	=152	=152
0Cl	0Gl	0cl	0gl	0eel	0ccl
==	==	==	==	==	==
*-	*-	*-	*-	*-	*-
!!!RDF**kern: l=long note in original notation
!!!RDF**kern: i=editorial accidental
!!!RDF**kern: V=start of tuplet marker
!!!RDF**kern: Z=end of tuplet marker
!!!ENC:	Jesse Rodin; Victoria Chang 2012/02/05
!!!END:	2012/02/05/
!!!EED:	Jesse Rodin
!!!EEV:	2012/08/29/
!!attribution-level@Jos: 1 (secure)
!!ONB: Si placet setting
!!!ONB:	Translated from MusicXML and edited on 2012/08/29/ by Craig Sapp
!!muse2ps: C^@{COA}?\n@{SCT}^i2I150v105,105,105,105,105,130Q16
